X: 11061
M: 2/4
L: 1/16
K: D
[|!p!\
d4z4 | !f!d'c'ba gfed | c2e2A2c2 | defg abc'd' |
c'2(e'2a2)z2 | !p!A6d2 | .c2.d2.e2.c2 | !p!(d4A2)d2 |\
c2d2e2c2 | d4z4 | !f!d'c'ba gfed | cdef gabc' |\
d'abg f2Te2{de} | d4z4 |]


